Sources/FrostedUI/Resources/Icons.xcassets/dashedCircle20.imageset/dashed-circle-20.svg

<svg width="20" height="20" viewBox="0 0 20 20" fill="none" xmlns="http://www.w3.org/2000/svg" data-fui-icon="true">
  <path
    d="M11.832 19.2051L11.9502 19.8076C11.3193 19.9324 10.6675 20 10 20C9.33216 20 8.68002 19.9325 8.04883 19.8076L8.16797 19.2051L8.33984 18.3379C8.8756 18.4439 9.43051 18.5 10 18.5C10.5695 18.5 11.1244 18.4439 11.6602 18.3379L11.832 19.2051ZM2.93066 14.7217C3.55167 15.6493 4.35074 16.4483 5.27832 17.0693L4.86035 17.6914L4.86133 17.6924L4.67871 17.9648L4.44336 18.3135C3.35349 17.5836 2.41531 16.6456 1.68555 15.5557L2.93066 14.7217ZM17.6914 15.1387H17.6924L18.2471 15.5107L18.3135 15.5557C17.5836 16.6457 16.6457 17.5836 15.5557 18.3135L15.3213 17.9648L15.1387 17.6924V17.6914L14.7217 17.0693C15.6493 16.4483 16.4483 15.6493 17.0693 14.7217L17.6914 15.1387ZM1.66211 8.33984C1.55614 8.8756 1.5 9.43051 1.5 10C1.5 10.5695 1.55614 11.1244 1.66211 11.6602L0.191406 11.9502C0.0666855 11.3194 0 10.6674 0 10C0 9.33223 0.0665646 8.67996 0.191406 8.04883L1.66211 8.33984ZM19.8076 8.04883C19.9325 8.68002 20 9.33216 20 10C20 10.6675 19.9324 11.3193 19.8076 11.9502L18.3379 11.6602C18.4439 11.1244 18.5 10.5695 18.5 10C18.5 9.43051 18.4439 8.8756 18.3379 8.33984L19.8076 8.04883ZM4.86133 2.30762H4.86035L5.27832 2.93066C4.35074 3.55167 3.55167 4.35074 2.93066 5.27832L2.30762 4.86035V4.86133L1.68555 4.44336C2.41534 3.35352 3.35352 2.41534 4.44336 1.68555L4.86133 2.30762ZM15.5557 1.68555C16.6456 2.41531 17.5836 3.35349 18.3135 4.44336L17.6924 4.86133L17.6914 4.86035L17.0693 5.27832C16.4483 4.35074 15.6493 3.55167 14.7217 2.93066L15.1387 2.30762L15.5557 1.68555ZM10 0C10.6674 0 11.3194 0.0666855 11.9502 0.191406L11.6602 1.66211C11.1244 1.55614 10.5695 1.5 10 1.5C9.43051 1.5 8.8756 1.55614 8.33984 1.66211L8.04883 0.191406C8.67996 0.0665646 9.33223 0 10 0Z"
    fill="currentColor"
  />
</svg>

<svg xmlns="http://www.w3.org/2000/svg" width="20" height="20" fill="none" data-fui-icon="true" viewBox="0 0 20 20"><path fill="currentColor" d="m11.832 19.205.118.603a10 10 0 0 1-3.901 0l.119-.603.172-.867a8.55 8.55 0 0 0 3.32 0zm-8.901-4.483a8.6 8.6 0 0 0 2.347 2.347l-.418.622.001.001-.182.273-.236.349a10.1 10.1 0 0 1-2.757-2.758zm14.76.417h.001l.555.372.067.045a10.1 10.1 0 0 1-2.758 2.758l-.235-.35-.182-.272-.417-.623a8.6 8.6 0 0 0 2.347-2.347zm-16.029-6.8a8.55 8.55 0 0 0 0 3.321l-1.47.29a10.05 10.05 0 0 1 0-3.901zm18.146-.29a10 10 0 0 1 0 3.901l-1.47-.29a8.55 8.55 0 0 0 0-3.32zM4.86 2.308l.417.623a8.6 8.6 0 0 0-2.347 2.347l-.623-.418v.001l-.622-.418a10.1 10.1 0 0 1 2.757-2.757zm10.695-.622c1.09.73 2.028 1.667 2.758 2.757l-.622.418-.623.417a8.6 8.6 0 0 0-2.347-2.347l.417-.623zM10 0c.667 0 1.32.067 1.95.191l-.29 1.471a8.6 8.6 0 0 0-3.32 0L8.049.192A10 10 0 0 1 10 0"/></svg>
